X:13
T:Plymouth. ThoH.013
Q:3/8=100
T:Cream Pot,aka. ThoH.013
T:Kirn Staff,aka. ThoH.013
M:6/8
L:1/8
B:Thompson's Compleat Collection of 120 Favourite Hornpipes.
Z:Village Music Project, Simon Wilson 2016
O:England.
K:G
G2BB2d|dBd (e/f/g)e|G2BB2c|dBG AFD|
E2C (CEG)|F2D- DB,G,|(B/c/d)B cAF|G3G,3:|
d2ff2g|gdB ecA|(B/c/d)B Aag|f>ed e^cA|
a(f/g/a) g2e|f2d e^cA|(B/^c/d)F E>d^c|d3D3|
c2c cec|B2B BdB|A2A ABc|dBG AFD|
E2C- CEG|F2D- DB,G,|(B/c/d)B cAF|G3G,3:|

